X:1061
L:1/8
Q:3/8=120
M:6/8
K:D
 A,2 D F2 A | d2 f ecA | G2 B F2 A | E2 F GFE | A,2 D F2 A | d2 f ecA | faf gec | 
 d3"^undotted in ms" d3 :: a2 f d2 A | F2"^crotchet in MS" a agf | g2 e c2 A | E2 g gfe | 
 f2 d g2 e | a2 f b2 g | faf gec | d3"^undotted in ms" d3 :|

